findly-builder/apps/searchassist/src/assets/icons/content/latest-content-icons/green-validate.svg

<svg width="17" height="16" viewBox="0 0 17 16" fill="none" xmlns="http://www.w3.org/2000/svg">
<path d="M7.49219 0V2H4.00391C3.18138 2 2.50391 2.67747 2.50391 3.5V5H3.50391V3.5C3.50391 3.21853 3.72244 3 4.00391 3H7.49219V5L9.99219 2.5L7.49219 0ZM11.5 2V3H13C13.2815 3 13.5 3.21853 13.5 3.5V7H11.5L14 9.5L16.5 7H14.5V3.5C14.5 2.67747 13.8225 2 13 2H11.5ZM3 6.50391L0.5 9.00391H2.50391V12.5C2.50391 13.3225 3.18137 14 4.00391 14H5.5V13H4.00391C3.72244 13 3.50391 12.7815 3.50391 12.5V9.00391H5.5L3 6.50391ZM9.5 11L7 13.5L9.5 16V14H13C13.8225 14 14.5 13.3225 14.5 12.5V11H13.5V12.5C13.5 12.7815 13.2815 13 13 13H9.5V11Z" fill="#28A745"/>
</svg>

<svg width="17" height="16" fill="none" xmlns="http://www.w3.org/2000/svg"><path d="M7.492 0v2H4.004c-.823 0-1.5.677-1.5 1.5V5h1V3.5c0-.281.218-.5.5-.5h3.488v2l2.5-2.5-2.5-2.5ZM11.5 2v1H13c.281 0 .5.219.5.5V7h-2L14 9.5 16.5 7h-2V3.5c0-.823-.678-1.5-1.5-1.5h-1.5ZM3 6.504l-2.5 2.5h2.004V12.5c0 .822.677 1.5 1.5 1.5H5.5v-1H4.004a.493.493 0 0 1-.5-.5V9.004H5.5L3 6.504ZM9.5 11 7 13.5 9.5 16v-2H13c.822 0 1.5-.678 1.5-1.5V11h-1v1.5c0 .281-.219.5-.5.5H9.5v-2Z" fill="#28A745"/></svg>
